icons/mobile/16/svg/pause-badge-fill-16.svg

<svg width="16" height="16" viewBox="0 0 16 16" fill="none" xmlns="http://www.w3.org/2000/svg">
<path d="M5.84961 4.00977C6.49955 4.04676 6.99992 4.60591 7 5.25684V11.7402C6.99988 12.4131 6.47075 12.9592 5.79883 12.9922C5.70188 12.9972 5.60194 12.999 5.5 12.999C5.39212 12.999 5.27524 12.9962 5.15039 12.9893C4.50045 12.9523 4.0001 12.3931 4 11.7422V5.25879C4.00011 4.58589 4.52924 4.03983 5.20117 4.00684C5.29812 4.00184 5.39806 4 5.5 4C5.60788 4 5.72476 4.00278 5.84961 4.00977Z" fill="black"/>
<path d="M11.8496 4.00977C12.4996 4.04676 12.9999 4.60591 13 5.25684V11.7402C12.9999 12.4131 12.4708 12.9592 11.7988 12.9922C11.7019 12.9972 11.6019 12.999 11.5 12.999C11.3921 12.999 11.2752 12.9962 11.1504 12.9893C10.5005 12.9523 10.0001 12.3931 10 11.7422V5.25879C10.0001 4.58589 10.5292 4.03983 11.2012 4.00684C11.2981 4.00184 11.3981 4 11.5 4C11.6079 4 11.7248 4.00278 11.8496 4.00977Z" fill="black"/>
</svg>

<!-- This Source Code Form is subject to the terms of the Mozilla Public
   - License, v. 2.0. If a copy of the MPL was not distributed with this
   - file, You can obtain one at http://mozilla.org/MPL/2.0/. -->
<svg xmlns="http://www.w3.org/2000/svg" width="16" height="16" fill="none" viewBox="0 0 16 16">
    <path fill="#000" d="M5.85 4.01C6.5 4.047 7 4.606 7 5.257v6.483c0 .673-.53 1.22-1.201 1.252a6 6 0 0 1-.649-.003C4.5 12.952 4 12.393 4 11.742V5.26c0-.673.53-1.22 1.201-1.252a6 6 0 0 1 .649.003m6-.001c.65.037 1.15.596 1.15 1.247v6.483c0 .673-.53 1.22-1.201 1.252a6 6 0 0 1-.649-.003c-.65-.037-1.15-.596-1.15-1.247V5.26c0-.673.53-1.22 1.201-1.252a6 6 0 0 1 .649.003" />
</svg>
